!!!!SEGMENT: pl-sa--l-1643--105_anonim--zywotne-drzewo-w-raju.krn
!!!cenid: 16xx:1463
!!!COM: Anonim
!!!COM-rismid: pe30004985
!!!CDT:
!!!CNT:
!!!OTL: Żywotne drzewo w raju
!!!PDT:
!!!AGN: Sacred
!!!SMS-siglum: PL-SA
!!!SMS-shelfmark: L 1643
!!!SMS-shelfwork: 105 W
!!!SMS-variant:
!!!SMS-altvar:
!!!NIFC-rismid: 1001064784
!!!system-decoration: [(s1)]
!!!key:
**kern	**text	**text	**text
*part1	*part1	*part1	*part1
*staff1	*	*	*
*Iempty	*	*	*
*I"Baſsus 2di Chori	*	*	*
*I'Coro 2 B	*	*	*
*clefC3	*	*	*
*k[]	*	*	*
*d:	*	*	*
*M2/1	*	*	*
*met(C|)	*	*	*
=1-	=1-	=1-	=1-
!!LO:TX:t=P:problem:w źródle metrum trójdzielne zapisane jako 3/2, ale ze względu na podział nut w taktach transkrybujemy jako 3/1:global
!LO:TX:a:Bi:t=Na Boże ciało	!	!	!
00r	.	.	.
=2-	=2-	=2-	=2-
.	.	.	.
=3-	=3-	=3-	=3-
00r	.	.	.
=4-	=4-	=4-	=4-
.	.	.	.
=5-	=5-	=5-	=5-
2r	.	.	.
2c/	Żi-	Gdy	Na-
2c/	-wot-	nie-	-ro-
2G/	-ne	-przy-	-do-
=6-	=6-	=6-	=6-
2A/	drze-	-ia-	-wi
2e\	-wo	-cio-	luc-
4A/	w ra-	-ły	-kie-
4B/	.	.	.
4c/	.	.	.
4d/	.	.	.
=7-	=7-	=7-	=7-
!LO:TX:t=P:global:problem=kreska oddechu na różnych liniach [rozdzielacz słów / znak oddechu]	!	!	!
2e,<\	-iu	ſwe	-mu
1d\	kto-	A-	przeſ
.	.	.	.
!LO:TX:t=P:problem=# below	!	!	!
2c#X/	-rym	-bra-	grzech
=8-	=8-	=8-	=8-
2d\	by	-am	ſtra-
2A/	smierc	zwo-	-co-
1e	zgła-	-io-	-ne-
=9-	=9-	=9-	=9-
2A/	-dził,	-wał,	-mu
2r	.	.	.
00r	.	.	.
=10-	=10-	=10-	=10-
.	.	.	.
=11-	=11-	=11-	=11-
.	.	.	.
00r	.	.	.
=12-	=12-	=12-	=12-
.	.	.	.
=13-	=13-	=13-	=13-
.	.	.	.
2r	.	.	.
2cny/	A	Po-	Ka-
=14-	=14-	=14-	=14-
2f\	wy-	-rząd-	-zał
!LO:SIC:v:t=custos c	!	!	!
2d\	-ro-	-kiem	ży-
!LO:LB:g=original	!	!	!
2c/	-ku	y	-dum
2f\	pan-	o	po-
=15-	=15-	=15-	=15-
1g	-ſkie-	fa-	-zy-
2c/	-go	-rą	-wac
1A/	nic	tis	z wnetrz-
=16-	=16-	=16-	=16-
.	.	.	.
2d\	nie	w za-	-no-
2e\	od-	-ko-	-scia-
2f\	-ſtem-	-nie	-mi
=17-	=17-	=17-	=17-
1e	-po-	no-	ie-
2A/	-wał	-wem	-go,
2r	.	.	.
=18-	=18-	=18-	=18-
00r	.	.	.
=19-	=19-	=19-	=19-
.	.	.	.
=20-	=20-	=20-	=20-
0r	.	.	.
=21-	=21-	=21-	=21-
1r	.	.	.
2r	.	.	.
2g\	kos-	Bo-	Cze-
=22-	=22-	=22-	=22-
2e\	-cioł	-ga	-goſz
2d\	w nim	pra-	nom
2a\	drze-	-we-	y z
2c/	-wo	-go	ſy-
=23-	=23-	=23-	=23-
1G	ży-	na	-nem
2c/	-we	twarz	ſwim
1d\	Bog	przed	wicz-
=24-	=24-	=24-	=24-
.	.	.	.
!LO:SIC:v:t=custos d	!	!	!
2A/	nie-	to-	-nie
!LO:PB:g=original	!	!	!
2d\	-o-	-bą	nie
2c\	-gar-	pa-	da-
=25-	=25-	=25-	=25-
1B-X	-nio-	-da-	-ro-
2A/	-ny	-my	-wał
2r	.	.	.
=26-	=26-	=26-	=26-
00r	.	.	.
=27-	=27-	=27-	=27-
.	.	.	.
=28-	=28-	=28-	=28-
0r	.	.	.
=29-	=29-	=29-	=29-
1r	.	.	.
2r	.	.	.
2c/	I	Niech	On
=30-	=30-	=30-	=30-
2g\	o-	nąm	ſ to-
2e\	-pa-	bę-	-bą
2f\	-trui	-dzie	a
2d\	beſ	mi-	ty
=31-	=31-	=31-	=31-
1c	kon-	-łos-	wicz-
1g	-ca	-ciw	-nie
=32-	=32-	=32-	=32-
1f	dro-	przeſ	w nim
2c/	-gie	krew	za-
2d\	ku-	ſi-	-zyi
=33-	=33-	=33-	=33-
2d\	-pno	-na	po-
1e\	two-	ſwe-	-ko-
.	.	.	.
!LO:SIC:v:t=custos a	!	!	!
1A/	-ie	-go	-ia
!LO:LB:g=original	!	!	!
=34-	=34-	=34-	=34-
*M3/1	*	*	*
.	.	.	.
1a	Cuſz	.	.
2a\	ci	.	.
=35-	=35-	=35-	=35-
1d	wza-	.	.
2a\	-iem	.	.
1e	od-	.	.
2a\	-dam,	.	.
=36-	=36-	=36-	=36-
0.r	.	.	.
=37-	=37-	=37-	=37-
1.r	.	.	.
2c/	Wyz-	.	.
2c/	-nąm	.	.
2G/	zło-	.	.
=38-	=38-	=38-	=38-
1A	-ma-	.	.
2e\	-ſzem	.	.
1d	zes	.	.
2A/	moy	.	.
=39-	=39-	=39-	=39-
*M2/1	*	*	*
*met(C|)	*	*	*
2d\	pan	.	.
2r	.	.	.
0r	.	.	.
=40-	=40-	=40-	=40-
.	.	.	.
!LO:SIC:v:t=custos c	!	!	!
2r	.	.	.
!LO:LB:g=original	!	!	!
2c/	zes	.	.
=41-	=41-	=41-	=41-
1G	moy	.	.
2c/	Pan	.	.
2r	.	.	.
=42-	=42-	=42-	=42-
0r	.	.	.
=43-	=43-	=43-	=43-
2r	.	.	.
2A/	zes	.	.
1d	moy	.	.
=44-	=44-	=44-	=44-
2A/	Pan	.	.
2r	.	.	.
0r	.	.	.
=45-	=45-	=45-	=45-
.	.	.	.
!LO:SIC:v:t=custos a	!	!	!
2r	.	.	.
2a\	.	.	.
=46-	=46-	=46-	=46-
2d\	Bog	.	.
2a\	praw-	.	.
0d	-dzi-	.	.
=47-	=47-	=47-	=47-
.	.	.	.
!LO:TX:a:t=P:problem=W źródle fermaty nad longą 1al bez kropek	!	!	!
1al;;	-wy;	.	.
==	==	==	==
*-	*-	*-	*-
!!title: @{OTL};
!!!RDF**kern: > = above
!!!RDF**kern: < = below
!!!RDF**kern: | = vertical stroke
!!!RDF**kern: N = linked
!!!RDF**kern: i = editorial accidental
!!!RDF**kern: l = terminal long
!!!AIN: 1 empty
!!!ENC: Andrzej Gręziak
!!!END: 2021-10-30
!!!EED: Wojciech Jakubiak-Danek
!!!EST: 2021-11-03
!!!URL-scan: http://repozytorium.nifc.pl/skany/pl-sa-nut--l1643
!!!ONB-nifc: UWAGA: 8 ksiąg. Primi chori: 1mus Cantus (x), C 2dus (x), C 3tius (x), Bassus (x); Secondi chori: Primus Cantus (x), C 2dus (x), Altus (x), Bassus (159-160). UWAGA: Nie dodawać pustych linii, chyba że w rękopisie pojawiają się dodatkowe oznaczenia dotyczące pełnej obsady (a 4, a 8 itp.)
